icons-dark/actions/24/taxes-finances.svg

<?xml version="1.0" encoding="UTF-8" standalone="no"?>
<!-- Created with Inkscape (http://www.inkscape.org/) -->

<svg
   xmlns:dc="http://purl.org/dc/elements/1.1/"
   xmlns:cc="http://creativecommons.org/ns#"
   xmlns:rdf="http://www.w3.org/1999/02/22-rdf-syntax-ns#"
   xmlns:svg="http://www.w3.org/2000/svg"
   xmlns="http://www.w3.org/2000/svg"
   xmlns:sodipodi="http://sodipodi.sourceforge.net/DTD/sodipodi-0.dtd"
   xmlns:inkscape="http://www.inkscape.org/namespaces/inkscape"
   width="24"
   height="24"
   id="svg3869"
   version="1.1"
   inkscape:version="0.91 r13725"
   sodipodi:docname="taxes-finances.svg">
  <defs
     id="defs3871">
    <linearGradient
       id="linearGradient4290-48">
      <stop
         id="stop4292-0"
         offset="0"
         style="stop-color:#a5a5a5;stop-opacity:1;" />
      <stop
         id="stop4294-0"
         offset="1"
         style="stop-color:#f5f2f5;stop-opacity:1;" />
    </linearGradient>
    <inkscape:perspective
       id="perspective4146-9"
       inkscape:persp3d-origin="12 : 8 : 1"
       inkscape:vp_z="24 : 12 : 1"
       inkscape:vp_y="0 : 1000 : 0"
       inkscape:vp_x="0 : 12 : 1"
       sodipodi:type="inkscape:persp3d" />
    <inkscape:perspective
       id="perspective4146"
       inkscape:persp3d-origin="12 : 8 : 1"
       inkscape:vp_z="24 : 12 : 1"
       inkscape:vp_y="0 : 1000 : 0"
       inkscape:vp_x="0 : 12 : 1"
       sodipodi:type="inkscape:persp3d" />
    <inkscape:perspective
       sodipodi:type="inkscape:persp3d"
       inkscape:vp_x="0 : 12 : 1"
       inkscape:vp_y="0 : 1000 : 0"
       inkscape:vp_z="24 : 12 : 1"
       inkscape:persp3d-origin="12 : 8 : 1"
       id="perspective4146-9-1" />
    <inkscape:perspective
       sodipodi:type="inkscape:persp3d"
       inkscape:vp_x="0 : 12 : 1"
       inkscape:vp_y="0 : 1000 : 0"
       inkscape:vp_z="24 : 12 : 1"
       inkscape:persp3d-origin="12 : 8 : 1"
       id="perspective4146-96" />
  </defs>
  <sodipodi:namedview
     id="base"
     pagecolor="#ffffff"
     bordercolor="#666666"
     borderopacity="1.0"
     inkscape:pageopacity="0.0"
     inkscape:pageshadow="2"
     inkscape:zoom="22.627416"
     inkscape:cx="5.4926209"
     inkscape:cy="10.264796"
     inkscape:document-units="px"
     inkscape:current-layer="layer1"
     showgrid="true"
     fit-margin-top="0"
     fit-margin-left="0"
     fit-margin-right="0"
     fit-margin-bottom="0"
     inkscape:window-width="1366"
     inkscape:window-height="709"
     inkscape:window-x="-4"
     inkscape:window-y="0"
     inkscape:window-maximized="1"
     inkscape:showpageshadow="false"
     inkscape:snap-bbox="true"
     inkscape:object-nodes="true">
    <inkscape:grid
       type="xygrid"
       id="grid4132" />
    <sodipodi:guide
       position="4,18"
       orientation="18,0"
       id="guide4138" />
    <sodipodi:guide
       position="5,3"
       orientation="0,18"
       id="guide4140" />
    <sodipodi:guide
       position="20,2.0000174"
       orientation="-18,0"
       id="guide4142" />
    <sodipodi:guide
       position="2,21"
       orientation="0,-18"
       id="guide4144" />
    <sodipodi:guide
       position="3,19.000017"
       orientation="16,0"
       id="guide4146" />
    <sodipodi:guide
       position="2,4"
       orientation="0,16"
       id="guide4148" />
    <sodipodi:guide
       position="21,20"
       orientation="-16,0"
       id="guide4150" />
    <sodipodi:guide
       position="2,20"
       orientation="0,-16"
       id="guide4152" />
  </sodipodi:namedview>
  <metadata
     id="metadata3874">
    <rdf:RDF>
      <cc:Work
         rdf:about="">
        <dc:format>image/svg+xml</dc:format>
        <dc:type
           rdf:resource="http://purl.org/dc/dcmitype/StillImage" />
        <dc:title></dc:title>
      </cc:Work>
    </rdf:RDF>
  </metadata>
  <g
     inkscape:label="Capa 1"
     inkscape:groupmode="layer"
     id="layer1"
     transform="translate(-326,-532.3622)">
    <g
       transform="translate(-94.71429,7.57146)"
       id="layer1-3"
       inkscape:label="Capa 1">
      <path
         id="rect4144"
         transform="translate(421.71429,525.79074)"
         d="M 4,6 4,6.5 4,7 3,7 3,7.9082031 3,9 3,14 3,14.091797 3,15 3.5,15 4,15 4,16 4.9082031,16 6,16 l 10,0 0.0918,0 1,0 0.9082,0 0,-1 0.5,0 0.5,0 0,-0.908203 L 19,13 19,9 19,7.9082031 19,7 18,7 18,6.5 18,6 l -0.908203,0 -1,0 L 4.9082031,6 4,6 Z m 0.9082031,1 11.1835939,0 1,0 C 17.242137,7.4247 17.5753,7.7578631 18,7.9082031 L 18,9 l 0,4 0,1.091797 C 17.5753,14.242137 17.242137,14.5753 17.091797,15 l -1,0 L 16,15 6,15 4.9082031,15 C 4.7578631,14.5753 4.4247,14.242137 4,14.091797 L 4,13 4,9 4,7.9082031 C 4.4247013,7.7578551 4.7578551,7.4247013 4.9082031,7 Z M 11,8 c -1.662,0 -3,1.338 -3,3 0,1.662 1.338,3 3,3 1.662,0 3,-1.338 3,-3 0,-1.662 -1.338,-3 -3,-3 z m 0,1 c 1.108,0 2,0.892 2,2 0,1.108 -0.892,2 -2,2 C 9.892,13 9,12.108 9,11 9,9.892 9.892,9 11,9 Z"
         style="opacity:1;fill:#f2f2f2;fill-opacity:1;stroke:none;stroke-width:2.79999995;stroke-miterlimit:4;stroke-dasharray:none;stroke-opacity:0.55026455"
         inkscape:connector-curvature="0" />
    </g>
  </g>
</svg>

<svg xmlns="http://www.w3.org/2000/svg" viewBox="0 0 24 24">
  <defs id="defs3051">
    <style type="text/css" id="current-color-scheme">
      .ColorScheme-Text {
        color:#f2f2f2
      }
      .ColorScheme-Highlight {
        color:#3daee9;
      }
      </style>
  </defs>
  <a transform="translate(1,1)">
 <path 
     style="fill:currentColor;fill-opacity:1;stroke:none" 
     d="M 4 6 L 4 6.5 L 4 7 L 3 7 L 3 7.9082031 L 3 9 L 3 14 L 3 14.091797 L 3 15 L 3.5 15 L 4 15 L 4 16 L 4.9082031 16 L 6 16 L 16 16 L 16.091797 16 L 17.091797 16 L 18 16 L 18 15 L 18.5 15 L 19 15 L 19 14.091797 L 19 13 L 19 9 L 19 7.9082031 L 19 7 L 18 7 L 18 6.5 L 18 6 L 17.091797 6 L 16.091797 6 L 4.9082031 6 L 4 6 z M 4.9082031 7 L 16.091797 7 L 17.091797 7 C 17.242137 7.4247 17.5753 7.7578631 18 7.9082031 L 18 9 L 18 13 L 18 14.091797 C 17.5753 14.242137 17.242137 14.5753 17.091797 15 L 16.091797 15 L 16 15 L 6 15 L 4.9082031 15 C 4.7578631 14.5753 4.4247 14.242137 4 14.091797 L 4 13 L 4 9 L 4 7.9082031 C 4.4247013 7.7578551 4.7578551 7.4247013 4.9082031 7 z M 11 8 C 9.338 8 8 9.338 8 11 C 8 12.662 9.338 14 11 14 C 12.662 14 14 12.662 14 11 C 14 9.338 12.662 8 11 8 z M 11 9 C 12.108 9 13 9.892 13 11 C 13 12.108 12.108 13 11 13 C 9.892 13 9 12.108 9 11 C 9 9.892 9.892 9 11 9 z "
     class="ColorScheme-Text"
     />
</a>
</svg>
